!!!OTL: Dr. Luthers Glaubens - und Heldenlied: Ein feste Burg
!!!ARE: Europa, Mitteleuropa, Deutschland
!!!SCT: A0629
!!!YEM: Copyright 1995, estate of Helmut Schaffrath.
**kern
*ICvox
*Ivox
*M4/2
*k[b-]
*F:
{2ff
=1
1ff
1ff
=2
1cc
2dd
[2ff
=3
2ff]
2ee
1dd
=4
1cc
2r}
{2ff
=5
1ee
1dd
=6
1cc
2dd
[2b-
=7
2b-]
2a
1g
=8
1f
2r}
{2ff
=9
1ff
1ff
=10
1cc
2dd
[2ff
=11
2ff]
2ee
1dd
=12
1cc
2r}
{2ff
=13
1ee
1dd
=14
1cc
2dd
[2b-
=15
2b-]
2a
1g
=16
1f
2r}
{2f
=17
2a
2b-
2cc
[2dd
=18
2dd]
1cc
2b-
=19
1cc}
{1f
=20
1cc
1dd
=21
1ee
1ff
=22
1r}
{1ee
=23
1ff
1ee
=24
1dd
1cc}
=25
{1dd
1dd
=26
2cc
1dd
2cc
=27
1a
2r}
{2ff
=28
1ee
1dd
=29
1cc
2dd
[2b-
=30
2b-]
2a
1g
=31
1.f}
==
!!!AGN: Romanze, Ballade, Lied, religioeses Lied
!! Strassburger Gsgb 1531
!!!ONB: ESAC (Essen Associative Code) Database: ALTDEU
!!!AMT: simple quadruple
!!!AIN: vox
!!!EED: Helmut Schaffrath
!!!EEV: 1.0
*-
